logos/tv.bbcnews.svg

<?xml version="1.0" encoding="UTF-8" standalone="no"?>
<!-- Created with Inkscape (http://www.inkscape.org/) -->

<svg
   xmlns:dc="http://purl.org/dc/elements/1.1/"
   xmlns:cc="http://creativecommons.org/ns#"
   xmlns:rdf="http://www.w3.org/1999/02/22-rdf-syntax-ns#"
   xmlns:svg="http://www.w3.org/2000/svg"
   xmlns="http://www.w3.org/2000/svg"
   xmlns:inkscape="http://www.inkscape.org/namespaces/inkscape"
   version="1.0"
   width="1024"
   height="768"
   id="svg2">
  <defs
     id="defs4">
    <clipPath
       id="clipPath2506">
      <path
         d="m 95.031,136.276 335.268,0 0,48.909 -335.268,0 0,-48.909 z"
         inkscape:connector-curvature="0"
         id="path2508" />
    </clipPath>
    <clipPath
       id="clipPath2412">
      <path
         d="m 121.254,357.165 168,0 0,126 -168,0 0,-126 z"
         inkscape:connector-curvature="0"
         id="path2414" />
    </clipPath>
    <clipPath
       id="clipPath2398">
      <path
         d="m 0,0 841.89,0 0,595.276 L 0,595.276 0,0 z"
         inkscape:connector-curvature="0"
         id="path2400" />
    </clipPath>
  </defs>
  <metadata
     id="metadata7">
    <rdf:RDF>
      <cc:Work
         rdf:about="">
        <dc:format>image/svg+xml</dc:format>
        <dc:type
           rdf:resource="http://purl.org/dc/dcmitype/StillImage" />
        <dc:title />
      </cc:Work>
    </rdf:RDF>
  </metadata>
  <g
     id="layer1">
    <path
       d="m 4.3863397,5.1286903 1015.7142603,0 0,761.7857197 -1015.7142603,0 0,-761.7857197 z"
       inkscape:connector-curvature="0"
       id="path2416"
       style="fill:#c02519;fill-opacity:1;fill-rule:evenodd;stroke:none" />
    <path
       d="m 326.12593,389.20109 20.29011,0 0,149.14676 -18.3675,0 -99.72138,-114.87245 0,114.87245 -20.06641,0 0,-149.14676 17.29133,0 100.57385,115.8398 0,-115.8398 z"
       inkscape:connector-curvature="0"
       id="path2418"
       style="fill:#ffffff;fill-opacity:1;fill-rule:nonzero;stroke:none" />
    <path
       d="m 384.89831,389.20109 84.55821,0 0,18.99628 -63.20403,0 0,45.48344 61.06982,0 0,19.11115 -61.06982,0 0,46.34196 65.22941,0 0,19.00232 -86.58359,0 0,-148.93515 z"
       inkscape:connector-curvature="0"
       id="path2420"
       style="fill:#ffffff;fill-opacity:1;fill-rule:nonzero;stroke:none" />
    <path
       d="m 697.35137,389.20109 21.29372,0 -60.30803,149.79368 -4.69164,0 -48.76637,-121.29322 -49.27424,121.29322 -4.5828,0 -60.11457,-149.79368 21.51138,0 41.10015,102.81084 41.38431,-102.81084 20.18732,0 41.57174,102.81084 40.68903,-102.81084 z"
       inkscape:connector-curvature="0"
       id="path2422"
       style="fill:#ffffff;fill-opacity:1;fill-rule:nonzero;stroke:none" />
    <path
       d="m 776.50453,475.85724 -16.22724,-9.86089 c -10.18133,-6.21521 -17.42434,-12.32763 -21.72903,-18.34332 -4.3047,-6.01569 -6.46309,-12.93827 -6.46309,-20.76773 0,-11.74722 4.07495,-21.28163 12.23089,-28.60929 8.14386,-7.33369 18.7363,-11.00357 31.76526,-11.00357 12.44854,0 23.87533,3.50059 34.27431,10.48967 l 0,24.23809 c -10.74964,-10.33852 -22.32153,-15.50778 -34.70357,-15.50778 -6.97699,0 -12.70852,1.61426 -17.19459,4.84278 -4.48003,3.22247 -6.72911,7.35184 -6.72911,12.38809 0,4.46188 1.65658,8.6517 4.95765,12.54528 3.30712,3.90566 8.61544,7.99875 15.93704,12.27926 l 16.31189,9.65533 c 18.19217,10.87056 27.28523,24.70362 27.28523,41.49918 0,11.95883 -4.0024,21.67462 -12.00719,29.14737 -8.01085,7.47276 -18.42192,11.20309 -31.23322,11.20309 -14.72786,0 -28.14375,-4.5163 -40.24768,-13.57913 l 0,-27.12199 c 11.52352,14.61298 24.87291,21.91645 40.03608,21.91645 6.69283,0 12.26112,-1.86214 16.71091,-5.58643 4.4498,-3.72428 6.6747,-8.38568 6.6747,-13.99025 0,-9.07492 -6.55378,-17.68431 -19.64924,-25.83421"
       inkscape:connector-curvature="0"
       id="path2424"
       style="fill:#ffffff;fill-opacity:1;fill-rule:nonzero;stroke:none" />
    <path
       d="m 531.88667,285.64527 c -0.0121,3.19225 -0.99153,6.40868 -3.8452,8.90564 -2.84763,2.50301 -7.77505,4.40748 -15.93704,4.40748 l -16.42676,0 0,-26.34207 15.6952,0 c 7.32161,0 12.51505,1.48729 15.7738,3.80288 3.24666,2.33373 4.71582,5.39901 4.74,9.22607"
       inkscape:connector-curvature="0"
       id="path2436"
       style="fill:#ffffff;fill-opacity:1;fill-rule:nonzero;stroke:none" />
    <path
       d="m 518.57961,254.10372 c 3.05923,-2.20072 4.53444,-5.32041 4.55257,-9.99391 -0.0121,-3.21038 -0.93107,-5.96127 -3.24061,-8.01084 -2.31558,-2.05561 -6.24543,-3.51268 -12.59365,-3.51268 l -11.62025,0 0,24.9636 7.97457,0 c 6.90443,0 11.85,-1.22732 14.92737,-3.44617"
       inkscape:connector-curvature="0"
       id="path2438"
       style="fill:#ffffff;fill-opacity:1;fill-rule:nonzero;stroke:none" />
    <path
       d="m 549.60726,287.57997 c 0.0423,-12.17648 -8.06525,-21.43278 -21.04584,-24.98778 3.50663,-1.7896 6.27566,-3.97822 8.30709,-6.64447 2.70857,-3.57918 4.00844,-7.96247 3.99031,-13.07732 0.0181,-6.27566 -2.45465,-12.67829 -7.75692,-17.4727 -5.30831,-4.78837 -13.36148,-7.88993 -24.35296,-7.88388 l -30.35655,0 0,96.52913 35.61046,0 0.0181,0 c 12.70852,0 21.63229,-3.44617 27.37591,-8.55497 5.74967,-5.08462 8.21641,-11.75931 8.21036,-17.90801 m 33.83901,45.16905 -142.4237,0 0,-134.02592 142.4237,0 0,134.02592 z"
       inkscape:connector-curvature="0"
       id="path2440"
       style="fill:#ffffff;fill-opacity:1;fill-rule:nonzero;stroke:none" />
    <path
       d="m 354.47524,254.10372 c 3.05319,-2.20072 4.53444,-5.32041 4.55863,-9.99391 -0.006,-3.21038 -0.93107,-5.96127 -3.24062,-8.01084 -2.32163,-2.05561 -6.25147,-3.51268 -12.60574,-3.51268 l -11.60816,0 0,24.9636 7.97457,0 c 6.89839,0 11.84395,-1.22732 14.92132,-3.44617"
       inkscape:connector-curvature="0"
       id="path2442"
       style="fill:#ffffff;fill-opacity:1;fill-rule:nonzero;stroke:none" />
    <path
       d="m 363.04231,276.4192 c -3.2527,-2.31559 -8.45219,-3.80288 -15.76775,-3.80288 l -15.69521,0 0,26.34207 16.42676,0 c 8.16199,0 13.07732,-1.90447 15.931,-4.40748 2.85367,-2.49696 3.83916,-5.71339 3.8452,-8.90564 -0.0242,-3.82706 -1.49334,-6.89234 -4.74,-9.22607"
       inkscape:connector-curvature="0"
       id="path2444"
       style="fill:#ffffff;fill-opacity:1;fill-rule:nonzero;stroke:none" />
    <path
       d="m 385.50894,287.57997 c 0.0423,-12.17648 -8.07734,-21.43278 -21.03979,-24.98778 3.49454,-1.7896 6.26357,-3.97822 8.28895,-6.64447 2.72067,-3.57918 4.00845,-7.96247 4.0024,-13.07732 0.006,-6.27566 -2.46069,-12.67829 -7.76296,-17.4727 -5.30227,-4.78837 -13.35543,-7.88993 -24.34691,-7.88388 l -30.3626,0 0,96.52913 35.60441,0 0.0242,0 c 12.71457,0 21.6323,-3.44617 27.37592,-8.55497 5.74362,-5.08462 8.2285,-11.75931 8.2164,-17.90801 m 33.83901,45.16905 -142.41765,0 0,-134.02592 142.41765,0 0,134.02592 z"
       inkscape:connector-curvature="0"
       id="path2446"
       style="fill:#ffffff;fill-opacity:1;fill-rule:nonzero;stroke:none" />
    <path
       d="m 719.26782,288.2027 -2.28535,1.3966 c -11.02776,6.73516 -23.02286,10.34457 -33.91761,10.33852 -23.32515,-0.0907 -38.68178,-13.91165 -38.74224,-34.02038 0.0242,-19.67946 16.064,-34.24408 38.14974,-34.29245 11.25146,0.006 21.43883,2.91413 33.5488,9.55255 l 2.2249,1.22128 0,-17.96242 -0.95525,-0.37485 c -13.65169,-5.38692 -24.226,-7.78714 -34.6673,-7.7811 -16.14865,-0.006 -30.15704,5.32646 -40.13885,14.37115 -9.97577,9.05074 -15.90681,21.82576 -15.89472,36.49921 0.006,10.22365 4.22005,22.20061 13.25265,31.71084 9.00238,9.51023 22.87776,16.43885 41.90426,16.43281 l 0.0665,0 c 15.77985,0 26.72296,-3.51268 36.61408,-8.39174 l 0.84038,-0.41112 0,-18.2889 z m 28.28281,44.54632 -142.41765,0 0,-134.02592 142.41765,0 0,134.02592 z"
       inkscape:connector-curvature="0"
       id="path2448"
       style="fill:#ffffff;fill-opacity:1;fill-rule:nonzero;stroke:none" />
  </g>
</svg>

<?xml version="1.0" encoding="UTF-8" standalone="no"?>
<!-- Created with Inkscape (http://www.inkscape.org/) -->

<svg
   xmlns:dc="http://purl.org/dc/elements/1.1/"
   xmlns:cc="http://creativecommons.org/ns#"
   xmlns:rdf="http://www.w3.org/1999/02/22-rdf-syntax-ns#"
   xmlns:svg="http://www.w3.org/2000/svg"
   xmlns="http://www.w3.org/2000/svg"
   xmlns:sodipodi="http://sodipodi.sourceforge.net/DTD/sodipodi-0.dtd"
   xmlns:inkscape="http://www.inkscape.org/namespaces/inkscape"
   width="1024"
   height="768"
   id="svg2"
   sodipodi:version="0.32"
   inkscape:version="0.48.4 r9939"
   version="1.0"
   sodipodi:docname="tv.bbcworldnews.svg"
   inkscape:output_extension="org.inkscape.output.svg.inkscape">
  <defs
     id="defs4">
    <inkscape:perspective
       sodipodi:type="inkscape:persp3d"
       inkscape:vp_x="0 : 526.18109 : 1"
       inkscape:vp_y="0 : 1000 : 0"
       inkscape:vp_z="744.09448 : 526.18109 : 1"
       inkscape:persp3d-origin="372.04724 : 350.78739 : 1"
       id="perspective10" />
    <clipPath
       id="clipPath2506"
       clipPathUnits="userSpaceOnUse">
      <path
         id="path2508"
         d="M 95.031,136.276 L 430.299,136.276 L 430.299,185.185 L 95.031,185.185 L 95.031,136.276 z" />
    </clipPath>
    <clipPath
       id="clipPath2412"
       clipPathUnits="userSpaceOnUse">
      <path
         id="path2414"
         d="M 121.254,357.165 L 289.254,357.165 L 289.254,483.165 L 121.254,483.165 L 121.254,357.165 z" />
    </clipPath>
    <clipPath
       id="clipPath2398"
       clipPathUnits="userSpaceOnUse">
      <path
         id="path2400"
         d="M 0,0 L 841.89,0 L 841.89,595.276 L 0,595.276 L 0,0 z" />
    </clipPath>
    <inkscape:perspective
       id="perspective2390"
       inkscape:persp3d-origin="372.04724 : 350.78739 : 1"
       inkscape:vp_z="744.09448 : 526.18109 : 1"
       inkscape:vp_y="0 : 1000 : 0"
       inkscape:vp_x="0 : 526.18109 : 1"
       sodipodi:type="inkscape:persp3d" />
  </defs>
  <sodipodi:namedview
     id="base"
     pagecolor="#ffffff"
     bordercolor="#666666"
     borderopacity="1.0"
     inkscape:pageopacity="0.0"
     inkscape:pageshadow="2"
     inkscape:zoom="0.35"
     inkscape:cx="426.60407"
     inkscape:cy="407.07851"
     inkscape:document-units="px"
     inkscape:current-layer="layer1"
     showgrid="false"
     inkscape:window-width="1600"
     inkscape:window-height="837"
     inkscape:window-x="-8"
     inkscape:window-y="-8"
     inkscape:window-maximized="1" />
  <metadata
     id="metadata7">
    <rdf:RDF>
      <cc:Work
         rdf:about="">
        <dc:format>image/svg+xml</dc:format>
        <dc:type
           rdf:resource="http://purl.org/dc/dcmitype/StillImage" />
        <dc:title></dc:title>
      </cc:Work>
    </rdf:RDF>
  </metadata>
  <g
     inkscape:label="Ebene 1"
     inkscape:groupmode="layer"
     id="layer1">
    <path
       d="m 4.3863397,5.1286903 1015.7142603,0 0,761.7857197 -1015.7142603,0 0,-761.7857197 z"
       style="fill:#c02519;fill-opacity:1;fill-rule:evenodd;stroke:none"
       id="path2416"
       inkscape:connector-curvature="0" />
    <path
       d="m 326.12593,389.20109 20.29011,0 0,149.14676 -18.3675,0 -99.72138,-114.87245 0,114.87245 -20.06641,0 0,-149.14676 17.29133,0 100.57385,115.8398 0,-115.8398 z"
       style="fill:#ffffff;fill-opacity:1;fill-rule:nonzero;stroke:none"
       id="path2418"
       inkscape:connector-curvature="0" />
    <path
       d="m 384.89831,389.20109 84.55821,0 0,18.99628 -63.20403,0 0,45.48344 61.06982,0 0,19.11115 -61.06982,0 0,46.34196 65.22941,0 0,19.00232 -86.58359,0 0,-148.93515 z"
       style="fill:#ffffff;fill-opacity:1;fill-rule:nonzero;stroke:none"
       id="path2420"
       inkscape:connector-curvature="0" />
    <path
       d="m 697.35137,389.20109 21.29372,0 -60.30803,149.79368 -4.69164,0 -48.76637,-121.29322 -49.27424,121.29322 -4.5828,0 -60.11457,-149.79368 21.51138,0 41.10015,102.81084 41.38431,-102.81084 20.18732,0 41.57174,102.81084 40.68903,-102.81084 z"
       style="fill:#ffffff;fill-opacity:1;fill-rule:nonzero;stroke:none"
       id="path2422"
       inkscape:connector-curvature="0" />
    <path
       d="m 776.50453,475.85724 -16.22724,-9.86089 c -10.18133,-6.21521 -17.42434,-12.32763 -21.72903,-18.34332 -4.3047,-6.01569 -6.46309,-12.93827 -6.46309,-20.76773 0,-11.74722 4.07495,-21.28163 12.23089,-28.60929 8.14386,-7.33369 18.7363,-11.00357 31.76526,-11.00357 12.44854,0 23.87533,3.50059 34.27431,10.48967 l 0,24.23809 c -10.74964,-10.33852 -22.32153,-15.50778 -34.70357,-15.50778 -6.97699,0 -12.70852,1.61426 -17.19459,4.84278 -4.48003,3.22247 -6.72911,7.35184 -6.72911,12.38809 0,4.46188 1.65658,8.6517 4.95765,12.54528 3.30712,3.90566 8.61544,7.99875 15.93704,12.27926 l 16.31189,9.65533 c 18.19217,10.87056 27.28523,24.70362 27.28523,41.49918 0,11.95883 -4.0024,21.67462 -12.00719,29.14737 -8.01085,7.47276 -18.42192,11.20309 -31.23322,11.20309 -14.72786,0 -28.14375,-4.5163 -40.24768,-13.57913 l 0,-27.12199 c 11.52352,14.61298 24.87291,21.91645 40.03608,21.91645 6.69283,0 12.26112,-1.86214 16.71091,-5.58643 4.4498,-3.72428 6.6747,-8.38568 6.6747,-13.99025 0,-9.07492 -6.55378,-17.68431 -19.64924,-25.83421"
       style="fill:#ffffff;fill-opacity:1;fill-rule:nonzero;stroke:none"
       id="path2424"
       inkscape:connector-curvature="0" />
    <path
       d="m 531.88667,285.64527 c -0.0121,3.19225 -0.99153,6.40868 -3.8452,8.90564 -2.84763,2.50301 -7.77505,4.40748 -15.93704,4.40748 l -16.42676,0 0,-26.34207 15.6952,0 c 7.32161,0 12.51505,1.48729 15.7738,3.80288 3.24666,2.33373 4.71582,5.39901 4.74,9.22607"
       style="fill:#ffffff;fill-opacity:1;fill-rule:nonzero;stroke:none"
       id="path2436"
       inkscape:connector-curvature="0" />
    <path
       d="m 518.57961,254.10372 c 3.05923,-2.20072 4.53444,-5.32041 4.55257,-9.99391 -0.0121,-3.21038 -0.93107,-5.96127 -3.24061,-8.01084 -2.31558,-2.05561 -6.24543,-3.51268 -12.59365,-3.51268 l -11.62025,0 0,24.9636 7.97457,0 c 6.90443,0 11.85,-1.22732 14.92737,-3.44617"
       style="fill:#ffffff;fill-opacity:1;fill-rule:nonzero;stroke:none"
       id="path2438"
       inkscape:connector-curvature="0" />
    <path
       d="m 549.60726,287.57997 c 0.0423,-12.17648 -8.06525,-21.43278 -21.04584,-24.98778 3.50663,-1.7896 6.27566,-3.97822 8.30709,-6.64447 2.70857,-3.57918 4.00844,-7.96247 3.99031,-13.07732 0.0181,-6.27566 -2.45465,-12.67829 -7.75692,-17.4727 -5.30831,-4.78837 -13.36148,-7.88993 -24.35296,-7.88388 l -30.35655,0 0,96.52913 35.61046,0 0.0181,0 c 12.70852,0 21.63229,-3.44617 27.37591,-8.55497 5.74967,-5.08462 8.21641,-11.75931 8.21036,-17.90801 m 33.83901,45.16905 -142.4237,0 0,-134.02592 142.4237,0 0,134.02592 z"
       style="fill:#ffffff;fill-opacity:1;fill-rule:nonzero;stroke:none"
       id="path2440"
       inkscape:connector-curvature="0" />
    <path
       d="m 354.47524,254.10372 c 3.05319,-2.20072 4.53444,-5.32041 4.55863,-9.99391 -0.006,-3.21038 -0.93107,-5.96127 -3.24062,-8.01084 -2.32163,-2.05561 -6.25147,-3.51268 -12.60574,-3.51268 l -11.60816,0 0,24.9636 7.97457,0 c 6.89839,0 11.84395,-1.22732 14.92132,-3.44617"
       style="fill:#ffffff;fill-opacity:1;fill-rule:nonzero;stroke:none"
       id="path2442"
       inkscape:connector-curvature="0" />
    <path
       d="m 363.04231,276.4192 c -3.2527,-2.31559 -8.45219,-3.80288 -15.76775,-3.80288 l -15.69521,0 0,26.34207 16.42676,0 c 8.16199,0 13.07732,-1.90447 15.931,-4.40748 2.85367,-2.49696 3.83916,-5.71339 3.8452,-8.90564 -0.0242,-3.82706 -1.49334,-6.89234 -4.74,-9.22607"
       style="fill:#ffffff;fill-opacity:1;fill-rule:nonzero;stroke:none"
       id="path2444"
       inkscape:connector-curvature="0" />
    <path
       d="m 385.50894,287.57997 c 0.0423,-12.17648 -8.07734,-21.43278 -21.03979,-24.98778 3.49454,-1.7896 6.26357,-3.97822 8.28895,-6.64447 2.72067,-3.57918 4.00845,-7.96247 4.0024,-13.07732 0.006,-6.27566 -2.46069,-12.67829 -7.76296,-17.4727 -5.30227,-4.78837 -13.35543,-7.88993 -24.34691,-7.88388 l -30.3626,0 0,96.52913 35.60441,0 0.0242,0 c 12.71457,0 21.6323,-3.44617 27.37592,-8.55497 5.74362,-5.08462 8.2285,-11.75931 8.2164,-17.90801 m 33.83901,45.16905 -142.41765,0 0,-134.02592 142.41765,0 0,134.02592 z"
       style="fill:#ffffff;fill-opacity:1;fill-rule:nonzero;stroke:none"
       id="path2446"
       inkscape:connector-curvature="0" />
    <path
       d="m 719.26782,288.2027 -2.28535,1.3966 c -11.02776,6.73516 -23.02286,10.34457 -33.91761,10.33852 -23.32515,-0.0907 -38.68178,-13.91165 -38.74224,-34.02038 0.0242,-19.67946 16.064,-34.24408 38.14974,-34.29245 11.25146,0.006 21.43883,2.91413 33.5488,9.55255 l 2.2249,1.22128 0,-17.96242 -0.95525,-0.37485 c -13.65169,-5.38692 -24.226,-7.78714 -34.6673,-7.7811 -16.14865,-0.006 -30.15704,5.32646 -40.13885,14.37115 -9.97577,9.05074 -15.90681,21.82576 -15.89472,36.49921 0.006,10.22365 4.22005,22.20061 13.25265,31.71084 9.00238,9.51023 22.87776,16.43885 41.90426,16.43281 l 0.0665,0 c 15.77985,0 26.72296,-3.51268 36.61408,-8.39174 l 0.84038,-0.41112 0,-18.2889 z m 28.28281,44.54632 -142.41765,0 0,-134.02592 142.41765,0 0,134.02592 z"
       style="fill:#ffffff;fill-opacity:1;fill-rule:nonzero;stroke:none"
       id="path2448"
       inkscape:connector-curvature="0" />
  </g>
</svg>
